lib/brands/icons/php.svg

<svg xmlns="http://www.w3.org/2000/svg" fill="none" aria-hidden="true" viewBox="0 0 48 48"><g id="php-Icon"><g id="Group"><path id="Vector" fill="url(#paint0_radial_94_18401)" d="M24 34.5156C35.0457 34.5156 44 29.8076 44 24C44 18.1924 35.0457 13.4844 24 13.4844C12.9543 13.4844 4 18.1924 4 24C4 29.8076 12.9543 34.5156 24 34.5156Z"/><path id="Vector_2" fill="#6181B6" d="M24 33.7344C34.6142 33.7344 43.2188 29.3761 43.2188 24C43.2188 18.6239 34.6142 14.2656 24 14.2656C13.3858 14.2656 4.78125 18.6239 4.78125 24C4.78125 29.3761 13.3858 33.7344 24 33.7344Z"/><g id="Union"><path fill="white" fill-rule="evenodd" d="M28.8435 22.25L27.8904 27.1563C27.8592 27.2969 27.7342 27.4062 27.5935 27.4531H25.2498C25.156 27.4531 25.0779 27.4219 25.0154 27.3437C24.9529 27.2656 24.9373 27.1719 24.9529 27.0781L25.8591 22.4062C25.9685 21.8281 25.8748 21.6406 25.8279 21.5938C25.7654 21.5313 25.5779 21.4062 24.906 21.4062H23.3435L22.2185 27.1875C22.1873 27.3281 22.0623 27.4375 21.906 27.4375H19.6248C19.531 27.4375 19.4529 27.4062 19.3904 27.3281C19.3279 27.25 19.3123 27.1563 19.3279 27.0625L19.7342 24.9531C19.4842 25.3906 19.156 25.7969 18.7654 26.1562C18.281 26.6094 17.7342 26.9375 17.1248 27.1406C16.5467 27.3281 15.781 27.4219 14.8904 27.4219H13.1873L12.6873 29.9688C12.656 30.1094 12.531 30.2188 12.3748 30.2188H10.0779C9.98415 30.2188 9.90603 30.1875 9.84353 30.1094C9.78103 30.0313 9.7654 29.9375 9.78103 29.8437L11.8279 19.2812C11.8592 19.1406 11.9842 19.0312 12.1404 19.0312H16.531C17.9529 19.0312 18.9998 19.4219 19.6717 20.1875C20.0467 20.5938 20.2654 21.0938 20.3592 21.6875L21.3748 16.4844C21.406 16.3438 21.531 16.2344 21.6873 16.2344H23.9685C24.0623 16.2344 24.1404 16.2656 24.2029 16.3437C24.2654 16.4219 24.281 16.5156 24.2654 16.6094L23.7967 19.0469H25.4529C26.8279 19.0469 27.7654 19.2969 28.3123 19.7969C28.8748 20.3125 29.0623 21.1406 28.8435 22.25ZM16.531 24.6563C16.9217 24.3594 17.1873 23.8281 17.3279 23.0938C17.4529 22.4375 17.406 21.9531 17.2029 21.7031C17.0467 21.5313 16.656 21.3281 15.6873 21.3281H14.3748L13.6404 25.1094H14.656C15.4998 25.1094 16.1404 24.9531 16.531 24.6563Z" clip-rule="evenodd"/><path fill="white" fill-rule="evenodd" d="M34.4998 19.0313C35.9217 19.0313 36.9685 19.4219 37.6404 20.1875C38.3123 20.9688 38.5154 22.0313 38.2498 23.3906C38.1404 23.9375 37.9529 24.4375 37.7029 24.8906C37.4529 25.3438 37.1092 25.7656 36.7029 26.1406C36.2185 26.5938 35.6717 26.9219 35.0623 27.125C34.4842 27.3125 33.7185 27.4063 32.8279 27.4063H31.1248L30.6248 29.9531C30.5935 30.0938 30.4685 30.2031 30.3123 30.2031H28.0154C27.9217 30.2031 27.8435 30.1719 27.781 30.0938C27.7185 30.0156 27.7029 29.9219 27.7185 29.8281L29.7654 19.2813C29.7967 19.1406 29.9217 19.0313 30.0779 19.0313H34.4998ZM34.4529 24.6563C34.8435 24.3594 35.1092 23.8281 35.2498 23.0938C35.3904 22.4375 35.3435 21.9531 35.1248 21.7031C34.9685 21.5313 34.5779 21.3281 33.6092 21.3281H32.2967L31.5623 25.1094H32.5779C33.4217 25.1094 34.0623 24.9531 34.4529 24.6563Z" clip-rule="evenodd"/></g><g id="Union_2"><path fill="#000004" d="M21.7031 16.5469H23.9844L23.4375 19.3437H25.4687C26.75 19.3437 27.625 19.5625 28.1094 20.0156C28.5937 20.4687 28.7344 21.1875 28.5469 22.1875L27.5937 27.0938H25.2812L26.1875 22.4219C26.2969 21.8906 26.25 21.5312 26.0781 21.3437C25.9062 21.1562 25.5156 21.0469 24.9375 21.0469H23.1094L21.9375 27.0938H19.6562L21.7031 16.5469Z"/><path fill="#000004" fill-rule="evenodd" d="M10.0938 29.8906H12.3906L12.9375 27.0938H14.9063C15.7813 27.0938 16.4844 27 17.0469 26.8125C17.6094 26.625 18.1094 26.3281 18.5781 25.8906C18.9688 25.5313 19.2813 25.1406 19.5156 24.7188C19.75 24.2969 19.9219 23.8281 20.0156 23.3125C20.2656 22.0625 20.0781 21.0938 19.4688 20.3906C18.8594 19.6875 17.8906 19.3438 16.5625 19.3438H12.1406L10.0938 29.8906ZM15.6875 21.0156C16.5625 21.0156 17.1406 21.1719 17.4375 21.5C17.7344 21.8281 17.7969 22.375 17.6406 23.1563C17.4844 23.9688 17.1719 24.5625 16.7188 24.9063C16.2656 25.25 15.5781 25.4219 14.6562 25.4219H13.2656L14.125 21.0156H15.6875Z" clip-rule="evenodd"/><path fill="#000004" fill-rule="evenodd" d="M30.3125 29.8906H28.0156L30.0625 19.3438H34.4844C35.8125 19.3438 36.7812 19.6875 37.3906 20.3906C38 21.0938 38.1875 22.0625 37.9375 23.3125C37.8437 23.8281 37.6719 24.2969 37.4375 24.7188C37.2031 25.1406 36.8906 25.5313 36.5 25.8906C36.0312 26.3281 35.5312 26.625 34.9687 26.8125C34.4062 27 33.7031 27.0938 32.8281 27.0938H30.8594L30.3125 29.8906ZM35.3594 21.5C35.0625 21.1719 34.4844 21.0156 33.6094 21.0156H32.0469L31.1875 25.4219H32.5781C33.5 25.4219 34.1875 25.25 34.6406 24.9063C35.0937 24.5625 35.4062 23.9688 35.5625 23.1563C35.7187 22.375 35.6562 21.8281 35.3594 21.5Z" clip-rule="evenodd"/></g></g></g><defs><radialGradient id="paint0_radial_94_18401" cx="0" cy="0" r="1" gradientTransform="translate(16.008 17.183) scale(26.2649)" gradientUnits="userSpaceOnUse"><stop stop-color="white"/><stop offset="0.5" stop-color="#4C6B97"/><stop offset="1" stop-color="#231F20"/></radialGradient></defs></svg>

<svg xmlns="http://www.w3.org/2000/svg" fill="none" aria-hidden="true" viewBox="0 0 48 48"><path fill="url(#a)" d="M24 34.516c11.046 0 20-4.708 20-10.516s-8.954-10.516-20-10.516S4 18.192 4 24s8.954 10.516 20 10.516Z"/><path fill="#6181B6" d="M24 33.734c10.614 0 19.219-4.358 19.219-9.734S34.614 14.266 24 14.266 4.781 18.624 4.781 24 13.386 33.734 24 33.734Z"/><path fill="#fff" fill-rule="evenodd" d="m28.844 22.25-.953 4.906c-.032.14-.157.25-.297.297H25.25a.281.281 0 0 1-.234-.11.327.327 0 0 1-.063-.265l.906-4.672c.11-.578.016-.765-.03-.812-.063-.063-.25-.188-.923-.188h-1.562l-1.125 5.782a.32.32 0 0 1-.313.25h-2.281a.281.281 0 0 1-.234-.11.327.327 0 0 1-.063-.265l.406-2.11a5.04 5.04 0 0 1-.968 1.203 4.428 4.428 0 0 1-1.641.985c-.578.187-1.344.28-2.234.28h-1.704l-.5 2.548a.32.32 0 0 1-.312.25h-2.297a.281.281 0 0 1-.234-.11.327.327 0 0 1-.063-.265l2.047-10.563a.32.32 0 0 1 .313-.25h4.39c1.422 0 2.469.39 3.14 1.157.376.406.595.906.688 1.5l1.016-5.204a.32.32 0 0 1 .313-.25h2.28c.095 0 .173.032.235.11a.327.327 0 0 1 .063.265l-.47 2.438h1.657c1.375 0 2.313.25 2.86.75.562.515.75 1.344.53 2.453ZM16.53 24.656c.39-.297.657-.828.797-1.562.125-.657.078-1.14-.125-1.39-.156-.173-.547-.376-1.515-.376h-1.313l-.734 3.781h1.015c.844 0 1.485-.156 1.875-.453Zm17.97-5.625c1.422 0 2.469.39 3.14 1.157.672.78.876 1.843.61 3.203a5.2 5.2 0 0 1-.547 1.5 5.03 5.03 0 0 1-1 1.25 4.43 4.43 0 0 1-1.64.984c-.579.188-1.344.281-2.235.281h-1.703l-.5 2.547a.32.32 0 0 1-.313.25h-2.296a.281.281 0 0 1-.235-.11.327.327 0 0 1-.062-.265l2.047-10.547a.32.32 0 0 1 .312-.25H34.5Zm-.047 5.625c.39-.297.656-.828.797-1.562.14-.657.094-1.14-.125-1.39-.156-.173-.547-.376-1.516-.376h-1.312l-.734 3.781h1.015c.844 0 1.484-.156 1.875-.453Z" clip-rule="evenodd"/><path fill="#000004" d="M21.703 16.547h2.281l-.547 2.797h2.032c1.281 0 2.156.218 2.64.672.485.453.625 1.172.438 2.172l-.953 4.906H25.28l.907-4.672c.109-.531.062-.89-.11-1.078-.172-.188-.562-.297-1.14-.297h-1.829l-1.172 6.047h-2.28l2.046-10.547Z"/><path fill="#000004" fill-rule="evenodd" d="M10.094 29.89h2.297l.546-2.796h1.97c.874 0 1.577-.094 2.14-.282a4.103 4.103 0 0 0 1.531-.921c.39-.36.703-.75.938-1.172.234-.422.406-.89.5-1.407.25-1.25.062-2.218-.547-2.921-.61-.703-1.578-1.047-2.907-1.047h-4.421L10.094 29.89Zm5.594-8.874c.874 0 1.453.156 1.75.484.296.328.359.875.203 1.656-.157.813-.47 1.407-.922 1.75-.453.344-1.14.516-2.063.516h-1.39l.859-4.406h1.563Zm14.625 8.874h-2.297l2.047-10.546h4.421c1.328 0 2.297.343 2.907 1.047.609.703.797 1.672.547 2.922a4.56 4.56 0 0 1-.5 1.406 4.69 4.69 0 0 1-.938 1.172 4.104 4.104 0 0 1-1.531.922c-.563.187-1.266.28-2.14.28h-1.97l-.547 2.798Zm5.046-8.39c-.297-.328-.875-.484-1.75-.484h-1.562l-.86 4.406h1.391c.922 0 1.61-.172 2.063-.516.453-.343.765-.937.922-1.75.156-.781.093-1.328-.204-1.656Z" clip-rule="evenodd"/><defs><radialGradient id="a" cx="0" cy="0" r="1" gradientTransform="translate(16.008 17.183) scale(26.2649)" gradientUnits="userSpaceOnUse"><stop stop-color="#fff"/><stop offset=".5" stop-color="#4C6B97"/><stop offset="1" stop-color="#231F20"/></radialGradient></defs></svg>
